X:1     %Music
T:Bedfordshire May Carol
B:Broadwood, L, 1908, English Traditional Songs and Carols, London, Boosey
N:Reprinted by EP Publishing Limited, Rowman & Littlefield, Totowa, New Jersey, 1974
S: Sir Ernest Clarke
Z:Lucy Broadwood
F:http://www.folkinfo.org/songs
M:4/4     %Meter
L:1/8     %
K:F
A2 (AG) F2 (FG) |A2 (AG) F2 
w:I've been_ ram-bling_ all the_ night, 
F F |F2 d2 c2 F2 |G4 z2                                 
w:And the best part of the day;    
G2 |A A A B c2 (cB) |A2 (GA) F2                              
w:And now I am re-turn-ing_ back a--gain, 
F G |A2 c c G2 (AG) |F6 z2 |]
w:I have brought you a branch of_ May